src/main/resources/icons/FlexIcons/images/flex/flash_module_closed.svg

<svg xmlns="http://www.w3.org/2000/svg" width="16" height="16" viewBox="0 0 16 16">
  <g fill="none" fill-rule="evenodd">
    <path fill="#9AA7B0" fill-opacity=".8" d="M7.9844,4 L6.6964,2.711 C6.3044,2.32 5.5324,2 4.9784,2 L1.0504,2 C1.0234,2 1.0004,2.022 1.0004,2.051 L1.0004,13 L9,13 L9,7 L15.0004,7 L15.0004,4 L7.9844,4 Z"/>
    <path fill="#231F20" fill-opacity=".7" d="M11.5,12.5 L11.5,16 L10,16 L10,8 L11.5,8 L15,8 L15,9.5 L11.5,9.5 L11.5,11 L14.5,11 L14.5,12.5 L11.5,12.5 Z"/>
  </g>
</svg>

<svg xmlns="http://www.w3.org/2000/svg" width="16" height="16" viewBox="0 0 16 16"><rect id="frame" width="16" height="16" fill="none"/><g fill="none" fill-rule="evenodd"><path fill="#9AA7B0" fill-opacity=".8" d="M7.984 4L6.696 2.711C6.304 2.32 5.532 2 4.978 2H1.05a.05.05 0 0 0-.05.051V13h8V7h6V4H7.984z"/><path fill="#231F20" fill-opacity=".7" d="M11.5 12.5V16H10V8h5v1.5h-3.5V11h3v1.5h-3z"/></g></svg>
